theory/system/roles/teacher/teacher.svg

<svg viewBox="0 0 198.43 198.43" xmlns="http://www.w3.org/2000/svg"><path d="m179.24 136.52a6.44 6.44 0 0 0 -8.79-2.36l-20.45 11.84v-99.35a11.87 11.87 0 0 0 -11.86-11.86h-105.14a11.87 11.87 0 0 0 -11.84 11.86v110.52a6.43 6.43 0 1 0 12.86 0v-109.51h103.09v98.34l-20.47-11.87a6.43 6.43 0 0 0 -6.46 11.13l30.06 17.44c4.34 2.52 5.34.64 36.65-17.43a6.44 6.44 0 0 0 2.35-8.75z" fill="#4fa0ca"/></svg>

<svg id="Layer_1" data-name="Layer 1" xmlns="http://www.w3.org/2000/svg" viewBox="0 0 198.43 198.43"><defs><style>.cls-1{fill:#4fa0ca;}</style></defs><path class="cls-1" d="M179.24,136.52a6.44,6.44,0,0,0-8.79-2.36L150,146V46.65a11.87,11.87,0,0,0-11.86-11.86H33A11.87,11.87,0,0,0,21.16,46.65V157.17a6.43,6.43,0,1,0,12.86,0V47.66H137.11V146l-20.47-11.87a6.43,6.43,0,0,0-6.46,11.13l30.06,17.44c4.34,2.52,5.34.64,36.65-17.43A6.44,6.44,0,0,0,179.24,136.52Z"/></svg>
